X: 23631
T: Lily The Pict
R: reel
M: 4/4
K: Dmajor
D2DF ADFA|DFAd BAGF|E2EF GEFG|EFGE FGFE|
D2DF ADFA|de (3fed cdBA|GBAG FAGF|EDCE D4:|
dcde (3fed cd|BdAG FAGF|E2EF GEFG|EFGE FGFE|
D2de (3fed cd|BdAG FAGF|GBAG FAGF|EDCE D4|
dcde (3fed cd|BdAG FAGF|E2EF GEFG|EFGE FGFE|
D2DF ADFA|de (3fed cdBA|GBAG FAGF|EDCE D4||

